!!!!SEGMENT: pl-wnifc--6634-n--005_osmanski-wojciech--5-bialy-mazur.krn
!!!cenid: 18xx:4001
!!!COM: Osmański, Wojciech
!!!COM-rismID: pe30090329
!!!CDT: 1834-1908
!!!CNT: Polish
!!!OTL: 5. Biały Mazur
!!!PDT:
!!!AGN:
!!!YEC: Copyright 2022 Narodowy Instytut Fryderyka Chopina (https://polishscores.org)
!!!YEM: License CC-BY-4.0 (https://creativecommons.org/licenses/by/4.0)
!!!SMS-siglum: PL-Wnifc
!!!SMS-shelfmark: 6634/n
!!!SMS-shelfwork: 005 W
!!!SMS-variant:
!!!SMS-altvar:
!!!NIFC-rismSourceID: 1001148593
!!!NIFC-rismChildID: 1001148601
!!!NIFC-islandoraID: nifc:212915
!!!URL-pdf-islandora: https://repozytorium.nifc.pl/islandora/object/nifc%3A212915/datastream/PDF/view
!!!URL-scan: https://polish.musicsources.pl/pl/lokalizacje/galeria/druki-muzyczne/16872 @EN{Scan on Polish Music Sources Website} @PL{Skany w portalu Dziedzictwo Muzyki Polskiej w otwartym dostępie}
!!!IIIF:
!!!ONB-nifc: UWAGA: str. 10
!!!AIN: 1 violn
!!!key: D
**kern	**fing	**dynam
*staff1	*	*
*I"Violon.	*	*
*I'vl	*	*
*ICstr	*	*
*Ivioln	*	*
*clefG2	*	*
*k[f#c#]	*	*
*D:	*	*
*M3/8	*	*
=1	=1	=1
16.aau\LL	.	ff
32aa\JJk	.	.
8aa\L	.	.
8aa#X\J	.	.
=2	=2	=2
8bb\L	.	.
8gg\	.	.
8ee\J	.	.
=3	=3	=3
16.cc#\LL	.	.
32dd\JJk	.	.
8ee\L	4	.
8cc#\J	.	.
=4	=4	=4
8a\L	.	.
8aa\J	.	.
8r	.	.
=5||	=5||	=5||
16.au/LL	.	f
32a/JJk	.	.
8a/L	.	.
8b^/J	.	.
=6	=6	=6
8a\L	.	.
8dd\	.	.
8a\J	.	.
!LO:LB:g=original	!	!
=7	=7	=7
!LO:TUP:b	!	!
24a/LL	.	f
24a/	.	.
24a/JJ	.	.
8a/L	.	.
8b^>/J	.	.
=8	=8	=8
8a\L	.	.
8ff#\	.	.
8dd\J	.	.
=9	=9	=9
16.aa\LL	.	.
32gg\JJk	.	.
8ee\L	.	.
16gg\L	.	.
16aa\JJ	.	.
=10	=10	=10
16.aa\LL	.	.
32ff#\JJk	.	.
8dd\L	.	.
16ff#\L	.	.
16aa\JJ	.	.
=11	=11	=11
16.aa\LL	.	.
32gg#X\JJk	.	.
8ee\L	.	.
16gg#\L	.	.
16bb\JJ	.	.
=12	=12	=12
8aa\	.	<
8aa'\L	.	.
8aa#X'\J	.	[[
!LO:LB:g=original	!	!
=13	=13	=13
16.bb^\LL	.	f
32bb\JJk	.	.
8bb\L	.	.
8aa\J	.	.
=14	=14	=14
(8qaa/	.	>
16.gg\LL)	.	.
32ff#\JJk	.	.
8gg\L	.	.
8ee\J	.	]]
=15	=15	=15
16.aa^\LL	.	f
32aa\JJk	.	.
8aa\L	.	>
8gg\J	.	.
=16	=16	=16
(8qgg/	.	.
16.ff#\LL)	.	.
32ee\JJk	.	.
8ff#\L	.	.
8dd\J	.	]]
=17	=17	=17
16.ff#\LL	3	f
32aa\JJk	.	.
4ddd\	.	.
=18	=18	=18
16.gg\LL	4	f
32bb\JJk	.	.
4ddd\	.	.
!LO:LB:g=original	!	!
=19	=19	=19
16ee\LL	0	.
16ff#\JJ	.	.
(16gg\LL	.	.
32aa\L	.	.
32gg\JJJ)	.	.
16ff#\LL	.	.
16ee\JJ	.	.
=20	=20	=20
8dd\L	1	.
8ddd\J	4	.
!LO:TX:i:b:t=Fine.	!	!
8r	.	.
=21!|:	=21!|:	=21!|:
8ee^u\L	.	f <
8ff#^\	.	.
8gg#X^\J	.	[[
=22	=22	=22
4aa\	1	.
8ccc#\	.	.
=23	=23	=23
16.bb\LL	.	.
32aa#X\JJk	.	.
8bb\L	.	.
8ddd\J	.	.
=24	=24	=24
16ccc#\	.	.
16r	.	.
4aa\	1	.
!LO:LB:g=original	!	!
=25	=25	=25
8ff#^\L	3	f <
8gg#X^\	.	.
8aa#X^\J	.	[[
=26	=26	=26
4bb^\	.	.
8ddd\	.	.
=27	=27	=27
16.ccc#\LL	.	.
32bb#X\JJk	.	.
8ccc#\L	.	.
8eee\J	0	.
=28	=28	=28
16ddd\	.	.
16r	.	.
4bb^\	.	.
=29	=29	=29
!LO:TUP:a:problem:klamra łukowa	!	!
24ggn\LL	2	f
24aa\	.	.
24gg\JJ	.	.
16ee\LL	.	.
16gg\	.	.
16bb\	.	.
16ee\JJ	.	.
=30	=30	=30
16.gg\LL	.	.
32ff#\JJk	.	.
8dd\L	.	>
16ff#\L	.	.
16aa\JJ	.	]]
!LO:LB:g=original	!	!
=31	=31	=31
!LO:TUP:a:problem:klamra łukowa	!	!
24a\LL	.	.
24b\	.	.
24cc#\JJ	.	.
16a\LL	.	.
16cc#\	.	.
16ee\	4	.
16cc#\JJ	.	.
=32	=32	=32
4dd\	.	.
(16ff#\LL	.	.
16aa\JJ)	.	.
=33	=33	=33
!LO:TUP:a:problem:klamra łukowa	!	!
24gg\LL	.	ff
24aa\	.	.
24gg\JJ	.	.
16ee\LL	.	.
16gg\	.	.
16bb\	.	.
16ee\JJ	.	.
=34	=34	=34
16.gg\LL	.	.
32ff#\JJk	.	.
8dd\L	.	.
16ff#\L	.	.
16aa\JJ	.	.
=35	=35	=35
!LO:TUP:a:problem:klamra łukowa	!	!
24a\LL	.	.
24b\	.	.
24cc#\JJ	.	.
16a\LL	.	.
16cc#\	.	.
16ee\	4	.
16cc#\JJ	.	.
=36	=36	=36
8dd\L	.	.
8dd\J	.	.
8r	.	.
!LO:LB:g=original	!	!
=37:|!	=37:|!	=37:|!
*k[f#]	*	*
*M3/8	*	*
!LO:TX:a:B:t=Trio.	!	!
4.r	.	.
=38	=38	=38
4.r	.	.
=39!|:	=39!|:	=39!|:
(8qeeu/	.	f
16.dd\LL)	.	.
32cc#X\K	.	.
16dd\	.	.
16gg\	.	.
16b\	.	.
16ccn\JJ	.	.
=40	=40	=40
(8qee/	.	.
16.dd\LL)	.	.
32cc#X\JJk	.	.
8dd\L	.	.
16b\L	.	.
16g\JJ	.	.
=41	=41	=41
!LO:TUP:b:problem:klamra łukowa	!	!
24a/LL	.	.
24b/	.	.
24a/JJ	.	.
8f#/L	.	.
8d/J	.	.
=42	=42	=42
4g/	.	.
8b\	.	.
=43	=43	=43
(8qee/	.	.
16.dd\LL)	.	.
32cc#X\K	.	.
16dd\	.	.
16gg\	.	.
16b\	.	.
16ccn\JJ	.	.
!LO:LB:g=original	!	!
=44	=44	=44
(8qee/	.	.
16.dd\LL)	.	.
32cc#X\JJk	.	.
8dd\L	.	.
16b\L	.	.
16g\JJ	.	.
=45	=45	=45
16.a\LL	.	f
32gg\JJk	.	.
8ff#\L	.	.
8ee\J	.	.
=46	=46	=46
16.dd\LL	.	.
32aa\JJk	.	.
8ff#\L	.	.
8dd\J	.	.
=47	=47	=47
(8qee/	.	.
16.dd\LL)	.	.
32cc#X\K	.	.
16dd\	.	.
16gg\	.	.
16b\	.	.
16ccn\JJ	.	.
=48	=48	=48
(8qee/	.	.
16.dd\LL)	.	.
32cc#X\JJk	.	.
8dd\L	.	.
16b\L	.	.
16g\JJ	.	.
=49	=49	=49
!LO:TUP:b:problem:klamra łukowa	!	!
24a/LL	.	.
24b/	.	.
24a/JJ	.	.
8f#/L	.	.
8d/J	.	.
!LO:LB:g=original	!	!
=50	=50	=50
4g/	.	.
8b\	.	.
=51	=51	=51
(8qee/	.	.
16.dd\LL)	.	.
32cc#X\K	.	.
16dd\	.	.
16gg\	.	.
16b\	.	.
16ccn\JJ	.	.
=52	=52	=52
(8qee/	.	.
16.dd\LL)	.	.
32cc#X\JJk	.	.
8dd\L	.	.
16b\L	.	.
16g\JJ	.	.
=53	=53	=53
!LO:TUP:b:problem:klamra łukowa	!	!
24a/LL	.	.
24b/	.	.
24a/JJ	.	.
8f#/L	.	.
8d/J	.	.
=54	=54	=54
8g\L	.	.
8gg\J	.	.
8r	.	.
=55:|!|:	=55:|!|:	=55:|!|:
8bb\L	.	p <
8bb\	.	.
8bb\J	.	[[
=56	=56	=56
16.ccc\LL	.	.
32bb\JJk	.	.
8aa\L	.	.
16gg\L	.	.
16ff#\JJ	.	.
!LO:LB:g=original	!	!
=57	=57	=57
!LO:TUP:a:problem:klamra łukowa	!	!
24ee\LL	0	<
24ff#\	.	.
24gg\JJ	.	.
8.bb\L	.	[ >
16gg\Jk	.	]]
=58	=58	=58
8ff#\	.	.
4b^\	.	.
=59	=59	=59
8b\	.	.
16dd#X\LL	.	.
16b\	.	.
16dd#\	.	.
16ff#\JJ	.	.
=60	=60	=60
16ee\LL	.	.
16ff#\JJ	.	.
!LO:TUP:a:problem:klamra łukowa	!	!
24gg\LL	.	.
24aa\	.	.
24gg\JJ	.	.
16ff#\LL	.	.
16ee\JJ	.	.
=61	=61	=61
16.ff#\LL	.	.
32dd#X\JJk	.	.
8.b\L	.	.
16dd#\Jk	.	.
=62	=62	=62
16ee\LL	.	.
16ff#\JJ	.	.
8gg\L	.	.
8ee\J	.	.
=63	=63	=63
16.ddn\LL	.	f
32ff#\JJk	.	.
8dd\L	.	.
16ff#\L	.	.
16aa\JJ	.	.
!LO:LB:g=original	!	!
=64	=64	=64
8gg\L	.	.
8bb\	2	.
8ddd\J	.	.
=65	=65	=65
!LO:TUP:a:problem:klamra łukowa	!	!
24aa\LL	.	.
24bb\	.	.
24ccc\JJ	.	.
8aa\L	.	.
(16ccc\L	.	.
16eee\JJ)	0	.
=66	=66	=66
8ddd\L	.	.
8bb\	.	.
8gg\J	.	.
=67	=67	=67
!LO:TUP:a:problem:klamra łukowa	!	!
24dd\LL	1	.
24ee\	.	.
24ff#\JJ	.	.
8dd\L	.	.
(16ff#\L	.	.
16aa\JJ)	.	.
=68	=68	=68
8gg\L	.	.
8bb\	.	.
8ddd\J	.	.
=69	=69	=69
16aa\LL	.	.
16bb\JJ	.	.
!LO:TUP:a:problem:klamra łukowa	!	!
24ccc\LL	.	.
24ddd\	.	.
24eee\JJ	0	.
16bb\LL	.	.
16aa\JJ	.	.
=70	=70	=70
8gg\L	.	.
8gg\J	.	.
!LO:TX:b:i:t=Da Capo Mazur.	!	!
8r	.	.
=:|!	=:|!	=:|!
*-	*-	*-
!!!RDF**kern: > = above
!!!RDF**kern: < = below
!!!ENC: Filip Voros
!!!END: 2022-07-31
!!!ENC: Jan Barakat
!!!END: 2022-08-27
